icons/editor/spell-check.svg

<svg width="32" height="32" viewBox="0 0 32 32" fill="none" xmlns="http://www.w3.org/2000/svg">
<path fill-rule="evenodd" clip-rule="evenodd" d="M6 4C4.89543 4 4 4.89543 4 6V26C4 27.1039 4.89422 28 5.99947 28H6.02186H6.04426H6.06667H6.0891H6.11154H6.134H6.15647H6.17895H6.20144H6.22395H6.24647H6.269H6.29154H6.3141H6.33666H6.35924H6.38183H6.40443H6.42704H6.44967H6.4723H6.49494H6.51759H6.54026H6.56293H6.58561H6.6083H6.631H6.65371H6.67643H6.69916H6.72189H6.74464H6.76739H6.79014H6.81291H6.83569H6.85847H6.88125H6.90405H6.92685H6.94966H6.97247H6.99529H7.01812H7.04095H7.06378H7.08663H7.10947H7.13233H7.15518H7.17804H7.20091H7.22378H7.24665H7.26953H7.29241H7.31529H7.33818H7.36107H7.38396H7.40686H7.42975H7.45265H7.47555H7.49846H7.52136H7.54427H7.56717H7.59008H7.61299H7.6359H7.65881H7.68172H7.70463H7.72754H7.75045H7.77336H7.79627H7.81917H7.84208H7.86498H7.88789H7.91079H7.93369H7.95659H7.97948H8.00237H8.02526H8.04815H8.07103H8.09391H8.11679H8.13966H8.16253H8.1854H8.20826H8.23111H8.25397H8.27681H8.29966H8.32249H8.34532H8.36815H8.39097H8.41378H8.43659H8.45939H8.48219H8.50497H8.52775H8.55053H8.57329H8.59605H8.6188H8.64155H8.66428H8.68701H8.70973H8.73244H8.75514H8.77783H8.80051H8.82318H8.84584H8.8685H8.89114H8.91377H8.93639H8.95901H8.98161H9.0042H9.02677H9.04934H9.0719H9.09444H9.11697H9.13949H9.162H9.18449H9.20697H9.22944H9.25189H9.27433H9.29676H9.31918H9.34158H9.36396H9.38634H9.40869H9.43104H9.45336H9.47568H9.49797H9.52025H9.54252H9.56477H9.587H9.60922H9.63142H9.65361H9.67577H9.69792H9.72006H9.74217H9.76427H9.78635H9.80841H9.83046H9.85248H9.87449H9.89648H9.91845H9.9404H9.96233H9.98424H10.0061H10.028H10.0499H10.0717H10.0935H10.1153H10.137H10.1588H10.1805H10.2022H10.2239H10.2456H10.2672H10.2888H10.3104H10.332H10.3535H10.3751H10.3966H10.418H10.4395H10.4609H10.4823H10.5037H10.5251H10.5464H10.5677H10.589H10.6103H10.6315H10.6527H10.6739H10.695H10.7162H10.7373H10.7583H10.7794H10.8004H10.8214H10.8424H10.8633H10.8842H10.9051H10.926H10.9468H10.9676H10.9884H11.0091H11.0298H11.0505H11.0712H11.0918H11.1124H11.133H11.1535H11.174H11.1945H11.2149H11.2353H11.2557H11.2761H11.2964H11.3167H11.3369H11.3571H11.3773H11.3975H11.4176H11.4377H11.4578H11.4778H11.4978H11.5177H11.5376H11.5575H11.5774H11.5972H11.617H11.6367H11.6565H11.6761H11.6958H11.7154H11.735H11.7545H11.774H11.7935H11.8129H11.8323H11.8516H11.871H11.8902H11.9095H11.9287H11.9478H11.967H11.9861H12.0051H12.0241H12.0431H12.062H12.0809H12.0998H12.1186H12.1374H12.1561H12.1748H12.1934H12.2121H12.2306H12.2492H12.2677H12.2861H12.3045H12.3229H12.3412H12.3595H12.3777H12.3959H12.4141H12.4322H12.4502H12.4683H12.4862H12.5042H12.5221H12.5399H12.5577H12.5755H12.5932H12.6108H12.6285H12.646H12.6636H12.6811H12.6985H12.7159H12.7332H12.7505H12.7678H12.785H12.8022H12.8193H12.8363H12.8534H12.8703H12.8872H12.9041H12.9209H12.9377H12.9545H12.9711H12.9878H13.0043H13.0209H13.0373H13.0538H13.0702H13.0865H13.1028H13.119H13.1352H13.1513H13.1674H13.1834H13.1994H13.2153H13.2311H13.247H13.2627H13.2784H13.2941H13.3097H13.3252H13.3407H13.3562H13.3716H13.3869H13.4022H13.4174H13.4326H13.4477H13.4627H13.4777H13.4927H13.5076H13.5224H13.5372H13.5519H13.5666H13.5812H13.5958H13.6103H13.6247H13.6391H13.6534H13.6677H13.6819H13.6961H13.7102H13.7242H13.7382H13.7521H13.7659H13.7797H13.7935H13.8072H13.8208H13.8343H13.8478H13.8613H13.8747H13.888H13.9012H13.9144H13.9276H13.9406H13.9537H13.9666H13.9795H13.9923H14.0051H14.0178H14.0304H14.043H14.0555H14.0679H14.0803H14.0926H14.1049H14.1171H14.1292H14.1413H14.1532H14.1652H14.177H14.1888H14.2006H14.2122H14.2238H14.2354H14.2468H14.2582H14.2696H14.2808H14.292H14.3032H14.3142H14.3252H14.3362H14.347H14.3578H14.3685H14.3792H14.3898H14.4003H14.4107H14.4211H14.4314H14.4416H14.4518H14.4619H14.4719H14.4819H14.4918H14.5016H14.5113H14.521H14.5306H14.5401H14.5496H14.559H14.5683H14.5775H14.5867H14.5958H14.6048H14.6137H14.6226H14.6314H14.6401H14.6487H14.6573H14.6658H14.6742H14.6826H14.6909H14.6991H14.7072H14.7152H14.7232H14.7311H14.7389H14.7466H14.7543H14.7619H14.7694H14.7768H14.7842H14.7915H14.7987H14.8058H14.8128H14.8198H14.8267H14.8335H14.8402H14.8469H14.8534H14.8599H14.8663H14.8727H14.8789H14.8851H14.8912H14.8972H14.9031H14.9089H14.9147H14.9204H14.926H14.9315H14.9369H14.9423H14.9475H14.9527H14.9578H14.9629H14.9678H14.9726H14.9774H14.9821H14.9867H14.9912H14.9957H15V26H14.9957H14.9912H14.9867H14.9821H14.9774H14.9726H14.9678H14.9629H14.9578H14.9527H14.9475H14.9423H14.9369H14.9315H14.926H14.9204H14.9147H14.9089H14.9031H14.8972H14.8912H14.8851H14.8789H14.8727H14.8663H14.8599H14.8534H14.8469H14.8402H14.8335H14.8267H14.8198H14.8128H14.8058H14.7987H14.7915H14.7842H14.7768H14.7694H14.7619H14.7543H14.7466H14.7389H14.7311H14.7232H14.7152H14.7072H14.6991H14.6909H14.6826H14.6742H14.6658H14.6573H14.6487H14.6401H14.6314H14.6226H14.6137H14.6048H14.5958H14.5867H14.5775H14.5683H14.559H14.5496H14.5401H14.5306H14.521H14.5113H14.5016H14.4918H14.4819H14.4719H14.4619H14.4518H14.4416H14.4314H14.4211H14.4107H14.4003H14.3898H14.3792H14.3685H14.3578H14.347H14.3362H14.3252H14.3142H14.3032H14.292H14.2808H14.2696H14.2582H14.2468H14.2354H14.2238H14.2122H14.2006H14.1888H14.177H14.1652H14.1532H14.1413H14.1292H14.1171H14.1049H14.0926H14.0803H14.0679H14.0555H14.043H14.0304H14.0178H14.0051H13.9923H13.9795H13.9666H13.9537H13.9406H13.9276H13.9144H13.9012H13.888H13.8747H13.8613H13.8478H13.8343H13.8208H13.8072H13.7935H13.7797H13.7659H13.7521H13.7382H13.7242H13.7102H13.6961H13.6819H13.6677H13.6534H13.6391H13.6247H13.6103H13.5958H13.5812H13.5666H13.5519H13.5372H13.5224H13.5076H13.4927H13.4777H13.4627H13.4477H13.4326H13.4174H13.4022H13.3869H13.3716H13.3562H13.3407H13.3252H13.3097H13.2941H13.2784H13.2627H13.247H13.2311H13.2153H13.1994H13.1834H13.1674H13.1513H13.1352H13.119H13.1028H13.0865H13.0702H13.0538H13.0373H13.0209H13.0043H12.9878H12.9711H12.9545H12.9377H12.9209H12.9041H12.8872H12.8703H12.8534H12.8363H12.8193H12.8022H12.785H12.7678H12.7505H12.7332H12.7159H12.6985H12.6811H12.6636H12.646H12.6285H12.6108H12.5932H12.5755H12.5577H12.5399H12.5221H12.5042H12.4862H12.4683H12.4502H12.4322H12.4141H12.3959H12.3777H12.3595H12.3412H12.3229H12.3045H12.2861H12.2677H12.2492H12.2306H12.2121H12.1934H12.1748H12.1561H12.1374H12.1186H12.0998H12.0809H12.062H12.0431H12.0241H12.0051H11.9861H11.967H11.9478H11.9287H11.9095H11.8902H11.871H11.8516H11.8323H11.8129H11.7935H11.774H11.7545H11.735H11.7154H11.6958H11.6761H11.6565H11.6367H11.617H11.5972H11.5774H11.5575H11.5376H11.5177H11.4978H11.4778H11.4578H11.4377H11.4176H11.3975H11.3773H11.3571H11.3369H11.3167H11.2964H11.2761H11.2557H11.2353H11.2149H11.1945H11.174H11.1535H11.133H11.1124H11.0918H11.0712H11.0505H11.0298H11.0091H10.9884H10.9676H10.9468H10.926H10.9051H10.8842H10.8633H10.8424H10.8214H10.8004H10.7794H10.7583H10.7373H10.7162H10.695H10.6739H10.6527H10.6315H10.6103H10.589H10.5677H10.5464H10.5251H10.5037H10.4823H10.4609H10.4395H10.418H10.3966H10.3751H10.3535H10.332H10.3104H10.2888H10.2672H10.2456H10.2239H10.2022H10.1805H10.1588H10.137H10.1153H10.0935H10.0717H10.0499H10.028H10.0061H9.98424H9.96233H9.9404H9.91845H9.89648H9.87449H9.85248H9.83046H9.80841H9.78635H9.76427H9.74217H9.72006H9.69792H9.67577H9.65361H9.63142H9.60922H9.587H9.56477H9.54252H9.52025H9.49797H9.47568H9.45336H9.43104H9.40869H9.38634H9.36396H9.34158H9.31918H9.29676H9.27433H9.25189H9.22944H9.20697H9.18449H9.162H9.13949H9.11697H9.09444H9.0719H9.04934H9.02677H9.0042H8.98161H8.95901H8.93639H8.91377H8.89114H8.8685H8.84584H8.82318H8.80051H8.77783H8.75514H8.73244H8.70973H8.68701H8.66428H8.64155H8.6188H8.59605H8.57329H8.55053H8.52775H8.50497H8.48219H8.45939H8.43659H8.41378H8.39097H8.36815H8.34532H8.32249H8.29966H8.27681H8.25397H8.23111H8.20826H8.1854H8.16253H8.13966H8.11679H8.09391H8.07103H8.04815H8.02526H8.00237H7.97948H7.95659H7.93369H7.91079H7.88789H7.86498H7.84208H7.81917H7.79627H7.77336H7.75045H7.72754H7.70463H7.68172H7.65881H7.6359H7.61299H7.59008H7.56717H7.54427H7.52136H7.49846H7.47555H7.45265H7.42975H7.40686H7.38396H7.36107H7.33818H7.31529H7.29241H7.26953H7.24665H7.22378H7.20091H7.17804H7.15518H7.13233H7.10947H7.08663H7.06378H7.04095H7.01812H6.99529H6.97247H6.94966H6.92685H6.90405H6.88125H6.85847H6.83569H6.81291H6.79014H6.76739H6.74464H6.72189H6.69916H6.67643H6.65371H6.631H6.6083H6.58561H6.56293H6.54026H6.51759H6.49494H6.4723H6.44967H6.42704H6.40443H6.38183H6.35924H6.33666H6.3141H6.29154H6.269H6.24647H6.22395H6.20144H6.17895H6.15647H6.134H6.11154H6.0891H6.06667H6.04426H6.02186H6V6L26 6V18H28V6C28 4.89543 27.1046 4 26 4H6ZM22.7071 29.7071L29.7071 22.7071L28.2929 21.2929L22 27.5858L18.7071 24.2929L17.2929 25.7071L21.2929 29.7071L22 30.4142L22.7071 29.7071ZM13.3333 19L11.9231 22.3846L10.0769 21.6154L15.0769 9.61538H16.9231L21.9231 21.6154L20.0769 22.3846L18.6667 19H13.3333ZM17.8333 17H14.1667L16 12.6L17.8333 17Z" fill="black"/>
</svg>

<svg width="32" height="32" viewBox="0 0 32 32" xmlns="http://www.w3.org/2000/svg">
    <path fill-rule="evenodd" d="M6 4a2 2 0 00-2 2v20a2 2 0 002 2H15v-2H6V6h20v12h2V6a2 2 0 00-2-2H6zm16.707 25.707l7-7-1.414-1.414L22 27.586l-3.293-3.293-1.414 1.414 4 4 .707.707.707-.707zM13.333 19l-1.41 3.385-1.846-.77 5-12h1.846l5 12-1.846.77L18.667 19h-5.334zm4.5-2h-3.666L16 12.6l1.833 4.4z"/>
</svg>
